assets/icons/desktop/appearance-filled.svg

<?xml version="1.0" encoding="UTF-8" standalone="no"?>
<svg
   viewBox="0 0 24 24"
   version="1.1"
   id="svg8"
   sodipodi:docname="appearance-filled.svg"
   inkscape:version="1.2 (1:1.2.1+202207142221+cd75a1ee6d)"
   width="24"
   height="24"
   xmlns:inkscape="http://www.inkscape.org/namespaces/inkscape"
   xmlns:sodipodi="http://sodipodi.sourceforge.net/DTD/sodipodi-0.dtd"
   xmlns="http://www.w3.org/2000/svg"
   xmlns:svg="http://www.w3.org/2000/svg"
   xmlns:rdf="http://www.w3.org/1999/02/22-rdf-syntax-ns#"
   xmlns:cc="http://creativecommons.org/ns#"
   xmlns:dc="http://purl.org/dc/elements/1.1/">
  <metadata
     id="metadata14">
    <rdf:RDF>
      <cc:Work
         rdf:about="">
        <dc:format>image/svg+xml</dc:format>
        <dc:type
           rdf:resource="http://purl.org/dc/dcmitype/StillImage" />
      </cc:Work>
    </rdf:RDF>
  </metadata>
  <defs
     id="defs12" />
  <sodipodi:namedview
     pagecolor="#ffffff"
     bordercolor="#666666"
     borderopacity="1"
     objecttolerance="10"
     gridtolerance="10"
     guidetolerance="10"
     inkscape:pageopacity="0"
     inkscape:pageshadow="2"
     inkscape:window-width="1920"
     inkscape:window-height="1043"
     id="namedview10"
     showgrid="true"
     inkscape:snap-center="true"
     inkscape:zoom="16"
     inkscape:cx="1.4375"
     inkscape:cy="9.25"
     inkscape:window-x="0"
     inkscape:window-y="0"
     inkscape:window-maximized="1"
     inkscape:current-layer="svg8"
     inkscape:pagecheckerboard="0"
     inkscape:showpageshadow="2"
     inkscape:deskcolor="#d1d1d1">
    <inkscape:grid
       type="xygrid"
       id="grid848" />
  </sodipodi:namedview>
  <path
     id="path3037"
     style="color:#000000;fill:#808080;fill-opacity:1"
     d="M 5.4550781 3.0019531 C 4.4864992 3.0109531 3.7372579 3.0752249 3.1171875 3.4472656 C 2.7038072 3.6952942 2.3972494 4.103174 2.2285156 4.609375 C 2.0597821 5.115575 2 5.7241777 2 6.5019531 L 2 14.501953 C 2 15.279728 2.0597824 15.888331 2.2285156 16.394531 C 2.3972494 16.900733 2.7038072 17.308612 3.1171875 17.556641 C 3.7372579 17.928682 4.4864992 17.992972 5.4550781 18.001953 C 5.7802125 18.005253 6.1213195 18.003906 6.5 18.003906 L 9 18.003906 L 9 19.128906 C 9 21.003902 8.3749975 21.003906 7.125 21.003906 L 6 21.003906 L 6 22.003906 L 18 22.003906 L 18 21.003906 L 16.875 21.003906 C 15.625003 21.003906 15 21.003902 15 19.128906 L 15 18.003906 L 17.5 18.003906 C 17.878681 18.003906 18.219787 18.005253 18.544922 18.001953 C 19.513501 17.992953 20.262743 17.928681 20.882812 17.556641 C 21.296194 17.308612 21.602752 16.900733 21.771484 16.394531 C 21.940218 15.888331 22 15.279728 22 14.501953 L 22 6.5019531 C 22 5.7241777 21.94022 5.115575 21.771484 4.609375 C 21.734628 4.498801 21.688378 4.3935159 21.638672 4.2929688 L 20.955078 4.9746094 C 20.955242 4.9752212 20.954915 4.9759504 20.955078 4.9765625 C 20.982783 5.080644 21 5.1881688 21 5.3007812 L 21 15.699219 C 21 16.419414 20.398287 17 19.650391 17 L 4.3496094 17 C 3.6017138 17 3 16.419414 3 15.699219 L 3 5.3007812 C 3 4.5805858 3.6017138 4 4.3496094 4 L 15.568359 4 L 16.566406 3.0019531 L 6.5 3.0019531 C 6.1250012 3.0019531 5.7779378 2.9989531 5.4550781 3.0019531 z M 5.1992188 5 C 4.534421 5 4 5.4902136 4 6.0996094 L 4 14.900391 C 4 15.509786 4.534421 16 5.1992188 16 L 18.800781 16 C 19.465579 16 20 15.509786 20 14.900391 L 20 6.0996094 C 20 6.0471685 19.994029 5.9957495 19.986328 5.9453125 L 17.175781 8.7539062 A 1.0001 1.0001 0 0 1 16.773438 8.8886719 C 16.880804 9.2485066 17 9.6068308 17 10 C 17 11.249995 16.482062 12.315924 15.71875 13.039062 C 14.955438 13.762202 13.997144 14.183293 13.025391 14.460938 C 11.081884 15.016227 8.9999957 15 8 15 A 1.0001 1.0001 0 0 1 7.5527344 13.105469 C 7.5527344 13.105469 7.840643 12.972635 8.21875 12.5 C 8.596857 12.027365 9 11.277772 9 10 C 9 7.8027147 10.802715 6 13 6 C 13.283225 6 13.533687 6.1052234 13.800781 6.1621094 A 1.0001 1.0001 0 0 1 13.996094 5.5742188 L 14.570312 5 L 5.1992188 5 z " />
  <path
     id="path1027"
     style="color:#000000;fill:#808080;stroke-width:1.25"
     d="M 18.982422 2 L 14.703125 6.28125 C 15.446776 6.6871988 16.062801 7.3032246 16.46875 8.046875 L 22 2.5175781 L 22 2 L 18.982422 2 z M 13 7 C 11.343148 7 10 8.3431475 10 10 C 10 12.999997 8 14 8 14 C 9.999998 14 16 13.999996 16 10 C 16 8.3431475 14.656852 7 13 7 z " />
</svg>

<svg width="24" height="24" xmlns="http://www.w3.org/2000/svg"><path style="color:#000;fill:gray;fill-opacity:1" d="M5.455 3.002c-.969.009-1.718.073-2.338.445-.413.248-.72.656-.888 1.162C2.059 5.116 2 5.724 2 6.502v8c0 .778.06 1.386.229 1.893.168.506.475.914.888 1.162.62.372 1.37.436 2.338.445.325.003.666.002 1.045.002H9v1.125c0 1.875-.625 1.875-1.875 1.875H6v1h12v-1h-1.125c-1.25 0-1.875 0-1.875-1.875v-1.125h2.5c.379 0 .72.001 1.045-.002.969-.009 1.718-.073 2.338-.445.413-.248.72-.656.888-1.162.17-.507.229-1.115.229-1.893v-8c0-.778-.06-1.386-.229-1.893a2.498 2.498 0 0 0-.132-.316l-.684.682v.002c.028.104.045.211.045.324v10.398c0 .72-.602 1.301-1.35 1.301H4.35C3.602 17 3 16.42 3 15.7V5.3C3 4.58 3.602 4 4.35 4h11.218l.998-.998H6.5c-.375 0-.722-.003-1.045 0zM5.2 5C4.534 5 4 5.49 4 6.1v8.8c0 .61.534 1.1 1.2 1.1h13.6c.666 0 1.2-.49 1.2-1.1V6.1a1.02 1.02 0 0 0-.014-.155l-2.81 2.809a1 1 0 0 1-.403.135c.108.36.227.718.227 1.111 0 1.25-.518 2.316-1.281 3.04-.764.722-1.722 1.143-2.694 1.42C11.082 15.017 9 15 8 15a1 1 0 0 1-.447-1.895s.288-.132.666-.605C8.597 12.027 9 11.278 9 10c0-2.197 1.803-4 4-4 .283 0 .534.105.8.162a1 1 0 0 1 .196-.588L14.57 5H5.2z"/><path style="color:#000;fill:gray;stroke-width:1.25" d="m18.982 2-4.279 4.281a4.441 4.441 0 0 1 1.766 1.766L22 2.517V2h-3.018zM13 7a3 3 0 0 0-3 3c0 3-2 4-2 4 2 0 8 0 8-4a3 3 0 0 0-3-3z"/></svg>
